svg/NEPAnode-EnergyInfrastructure/Hydro_Icon.svg

<?xml version="1.0" encoding="UTF-8" standalone="no"?>
<!-- Created with Inkscape (http://www.inkscape.org/) -->

<svg
   xmlns:dc="http://purl.org/dc/elements/1.1/"
   xmlns:cc="http://creativecommons.org/ns#"
   xmlns:rdf="http://www.w3.org/1999/02/22-rdf-syntax-ns#"
   xmlns:svg="http://www.w3.org/2000/svg"
   xmlns="http://www.w3.org/2000/svg"
   xmlns:xlink="http://www.w3.org/1999/xlink"
   xmlns:sodipodi="http://sodipodi.sourceforge.net/DTD/sodipodi-0.dtd"
   xmlns:inkscape="http://www.inkscape.org/namespaces/inkscape"
   version="1.1"
   width="250"
   height="250"
   viewBox="0 0 0.34722222 0.34722222"
   id="svg2"
   inkscape:version="0.48.4 r9939"
   sodipodi:docname="Hydro_Icon.svg">
  <sodipodi:namedview
     pagecolor="#ffffff"
     bordercolor="#666666"
     borderopacity="1"
     objecttolerance="10"
     gridtolerance="10"
     guidetolerance="10"
     inkscape:pageopacity="0"
     inkscape:pageshadow="2"
     inkscape:window-width="1360"
     inkscape:window-height="744"
     id="namedview17"
     showgrid="false"
     inkscape:zoom="0.944"
     inkscape:cx="125"
     inkscape:cy="125"
     inkscape:window-x="0"
     inkscape:window-y="24"
     inkscape:window-maximized="1"
     inkscape:current-layer="svg2" />
  <title
     id="title4">SVG drawing</title>
  <desc
     id="desc6">This was produced by version 4.1 of GNU libplot, a free library for exporting 2-D vector graphics.</desc>
  <metadata
     id="metadata3395">
    <rdf:RDF>
      <cc:Work
         rdf:about="">
        <dc:format>image/svg+xml</dc:format>
        <dc:type
           rdf:resource="http://purl.org/dc/dcmitype/StillImage" />
        <dc:title>SVG drawing</dc:title>
      </cc:Work>
    </rdf:RDF>
  </metadata>
  <defs
     id="defs3393">
    <linearGradient
       id="linearGradient8138">
      <stop
         id="stop8140"
         style="stop-color:#ffffff;stop-opacity:0"
         offset="0" />
      <stop
         id="stop8142"
         style="stop-color:#000000;stop-opacity:0"
         offset="1" />
    </linearGradient>
    <radialGradient
       cx="0.17569096"
       cy="0.17470571"
       r="0.16916668"
       fx="0.17569096"
       fy="0.17470571"
       id="radialGradient8144"
       xlink:href="#linearGradient8138"
       gradientUnits="userSpaceOnUse" />
  </defs>
  <text
     x="-0.032071669"
     y="0.3455472"
     id="text7140"
     xml:space="preserve"
     style="font-size:0.0555556px;font-style:normal;font-variant:normal;font-weight:normal;font-stretch:normal;line-height:125%;letter-spacing:0px;word-spacing:0px;fill:#000000;fill-opacity:1;stroke:none;font-family:Energy Infrastructure;-inkscape-font-specification:Energy Infrastructure"><tspan
       x="-0.032071669"
       y="0.3455472"
       id="tspan7142"
       style="font-size:0.59036261px" /></text>
  <path
     d="M 329.28829,363.4657 A 105.41456,102.94666 0 1 1 118.45918,363.4657 105.41456,102.94666 0 1 1 329.28829,363.4657 z"
     transform="matrix(0.00161659,0,0,0.00168318,-0.18770819,-0.44043665)"
     id="path3037"
     style="opacity:0;fill:#000000;fill-opacity:1;fill-rule:nonzero;stroke:#000000;stroke-opacity:1" />
  <path
     d="M 296.14793,366.28613 A 58.877029,87.434151 0 1 1 178.39388,366.28613 58.877029,87.434151 0 1 1 296.14793,366.28613 z"
     transform="matrix(0.00161659,0,0,0.00168318,-0.18770819,-0.44043665)"
     id="path3807"
     style="opacity:0;fill:#000000;fill-opacity:1;fill-rule:nonzero;stroke:#000000;stroke-width:2;stroke-linejoin:round;stroke-miterlimit:4;stroke-opacity:1;stroke-dasharray:none" />
  <g
     style="font-size:0.0555556px;font-style:normal;font-variant:normal;font-weight:normal;font-stretch:normal;line-height:125%;letter-spacing:0px;word-spacing:0px;fill:#000000;fill-opacity:1;fill-rule:evenodd;stroke:none;font-family:Energy Infrastructure;-inkscape-font-specification:Energy Infrastructure"
     id="text8169">
    <path
       d="M 0.16584926,0.22588917 C 0.16779351,0.21305597 0.16857128,0.20294486 0.16818259,0.19555583 0.16818239,0.18777821 0.16779351,0.18194488 0.16701593,0.17805583 0.16623795,0.17416711 0.16546017,0.17163934 0.16468259,0.17047249 0.16390462,0.16930601 0.16390462,0.16872267 0.16468259,0.16872249 0.16623795,0.16872267 0.16993239,0.17125045 0.17576593,0.17630583 0.18159905,0.18097266 0.18821015,0.18738932 0.19559926,0.19555583 0.20298792,0.20372264 0.2103768,0.21305597 0.21776593,0.22355583 0.22554345,0.23366706 0.23196011,0.24436149 0.23701593,0.25563917 0.24207121,0.26652814 0.24537677,0.27741702 0.2469326,0.28830584 0.24848787,0.29880589 0.24693232,0.30833365 0.24226593,0.31688917 0.23798788,0.32466697 0.23254345,0.33088919 0.2259326,0.33555584 0.21932124,0.34022251 0.2121268,0.34333362 0.20434926,0.34488917 0.19696015,0.34644473 0.18937682,0.34625029 0.18159926,0.34430584 0.17382128,0.3423614 0.16662684,0.33847252 0.16001593,0.33263917 0.1510713,0.32486142 0.14601575,0.31611142 0.14484926,0.30638917 0.14407131,0.296667 0.14504353,0.28694479 0.14776592,0.2772225 0.15048797,0.26750036 0.15379352,0.25816703 0.15768259,0.2492225 0.16196018,0.24027816 0.1646824,0.23250039 0.16584926,0.22588917 M 0.24809926,0.10222249 C 0.24809899,0.09250052 0.24751565,0.0849172 0.24634926,0.07947249 0.24557121,0.07363943 0.24459899,0.06936165 0.2434326,0.06663915 0.24226566,0.06352833 0.24129344,0.06158388 0.24051593,0.06080582 0.23973788,0.06002833 0.23973788,0.05963944 0.24051593,0.05963915 0.24168233,0.05963944 0.24479343,0.061195 0.24984926,0.06430582 0.25490454,0.06702832 0.26054342,0.07091721 0.26676593,0.07597249 0.27337674,0.08102831 0.28018229,0.08705608 0.2871826,0.09405582 0.29418228,0.10066718 0.30021005,0.10766717 0.30526594,0.11505582 0.31071004,0.12244494 0.31459892,0.13002826 0.3169326,0.13780583 0.31926559,0.14558381 0.31926559,0.15297269 0.3169326,0.15997249 0.31459892,0.16658379 0.31129337,0.17202823 0.30701594,0.17630583 0.30273782,0.18058377 0.29787672,0.18388933 0.2924326,0.1862225 0.28698784,0.1881671 0.28115451,0.18894488 0.2749326,0.18855583 0.26909897,0.1881671 0.26346008,0.18622266 0.25801593,0.1827225 0.25023787,0.178056 0.24537677,0.17222267 0.2434326,0.16522249 0.24148788,0.15783379 0.2407101,0.15044491 0.24109926,0.14305583 0.24187677,0.13527826 0.24323788,0.12788938 0.2451826,0.12088916 0.24712677,0.1135005 0.24809899,0.10727829 0.24809926,0.10222249 M 0.05034925,0.1739725 C 0.05151584,0.16658379 0.05209917,0.16075046 0.05209925,0.15647249 0.05209917,0.15219491 0.05190472,0.14888936 0.05151592,0.14655583 0.05112695,0.1442227 0.05054361,0.14286159 0.04976592,0.14247249 0.04937695,0.14169492 0.04957139,0.14130603 0.05034925,0.14130583 0.05190472,0.14130603 0.05559917,0.14441714 0.06143259,0.15063916 0.06765471,0.15686157 0.07368248,0.1644449 0.07951592,0.17338916 0.08573803,0.18194488 0.09040469,0.19108376 0.09351592,0.20080583 0.09701579,0.21052819 0.09682135,0.21908374 0.09293259,0.2264725 0.08787691,0.23541706 0.08068248,0.24066705 0.07134925,0.2422225 0.06201583,0.24377816 0.05365472,0.24125038 0.04626592,0.23463917 0.04121029,0.22997262 0.03829363,0.22491707 0.03751592,0.2194725 0.03712696,0.21402819 0.03771029,0.20858375 0.03926592,0.20313916 0.04121029,0.19769487 0.04334918,0.19244487 0.04568258,0.18738916 0.04801584,0.18194488 0.04957139,0.17747267 0.05034925,0.1739725 M 0.09818259,0.03922249 C 0.09818246,0.03183391 0.09759913,0.02619503 0.09643259,0.02230582 0.09565468,0.01802837 0.09487691,0.01491726 0.09409925,0.01297248 0.09332135,0.01063949 0.09254358,0.00927838 0.09176592,0.00888915 0.09137691,0.00811171 0.09137691,0.00772282 0.09176592,0.00772248 0.09332135,0.00733393 0.09759913,0.00966727 0.10459925,0.01472248 0.111988,0.01938948 0.11937688,0.02541725 0.12676592,0.03280582 0.13454354,0.04019502 0.1409602,0.04836167 0.14601592,0.05730582 0.15146019,0.06625055 0.1528213,0.07461165 0.15009926,0.08238916 0.14698797,0.09211163 0.1409602,0.09872274 0.13201592,0.10222249 0.12307133,0.10572273 0.11432133,0.10494495 0.10576592,0.09988916 0.09993246,0.09638941 0.09623802,0.09211163 0.09468259,0.08705582 0.09312691,0.08161164 0.09254358,0.07597276 0.09293259,0.07013915 0.09371024,0.0643061 0.09468246,0.05866722 0.09584925,0.05322249 0.09740468,0.04777834 0.09818246,0.04311168 0.09818259,0.03922249"
       style="font-size:0.58333337px;fill:#000000"
       id="path2995" />
  </g>
</svg>

<svg xmlns="http://www.w3.org/2000/svg" width="250" height="250" viewBox="0 0 0.34722222 0.34722222"><text x="-.032" y=".346" font-family="Energy Infrastructure" word-spacing="0" line-height="125%" letter-spacing="0" font-size=".056"><tspan x="-.032" y=".346" font-size=".59"/></text><g fill-rule="evenodd"><path d="m.166.226c.002-.013.003-.023.002-.03 0-.008 0-.014-.0001-.018-.0001-.004-.002-.006-.002-.008-.0001-.0001-.0001-.002 0-.002.002 0 .005.003.011.008.006.005.012.011.02.019.007.008.015.018.022.028.008.001.014.021.019.032.005.011.008.022.001.033.002.011 0 .02-.005.029-.004.008-.001.014-.016.019-.007.005-.014.008-.022.009-.007.002-.015.0001-.023-.0001-.008-.002-.015-.006-.022-.012-.009-.008-.014-.017-.015-.026-.0001-.001 0-.019.003-.029.003-.001.006-.019.001-.028.004-.009.007-.017.008-.023m.082-.124c0-.001-.0001-.017-.002-.023-.0001-.006-.002-.001-.003-.013-.0001-.003-.002-.005-.003-.006-.0001-.0001-.0001-.0001 0-.0001.0001 0 .004.002.009.005.005.003.011.007.017.012.007.005.013.011.02.018.007.007.013.014.018.021.005.007.009.015.012.023.002.008.002.015 0 .022-.002.007-.006.012-.001.016-.004.004-.009.008-.015.001-.005.002-.011.003-.017.002-.006 0-.011-.002-.017-.006-.008-.005-.013-.001-.015-.018-.002-.007-.003-.015-.002-.022.0001-.008.002-.015.004-.022.002-.007.003-.014.003-.019m-.198.072c.0001-.007.002-.013.002-.018 0-.004 0-.008-.0001-.001 0-.002-.0001-.004-.002-.004 0-.0001 0-.0001.0001-.0001.002 0 .005.003.011.009.006.006.012.014.018.023.006.009.011.018.014.027.003.001.003.018-.0001.026-.005.009-.012.014-.022.016-.009.002-.018-.0001-.025-.008-.005-.005-.008-.001-.009-.015 0-.005 0-.011.002-.016.002-.005.004-.011.006-.016.002-.005.004-.001.005-.013m.048-.135c0-.007-.0001-.013-.002-.017-.0001-.004-.002-.007-.002-.009-.0001-.002-.002-.004-.002-.004 0-.0001 0-.0001 0-.0001.002 0 .006.002.013.007.007.005.015.011.022.018.008.007.014.016.019.025.005.009.007.017.004.025-.003.001-.009.016-.018.02-.009.004-.018.003-.026-.002-.006-.003-.001-.008-.011-.013-.002-.005-.002-.011-.002-.017.0001-.006.002-.011.003-.017.002-.005.002-.001.002-.014"/></g></svg>
